public_html/assets/hackerspace_ist.svg

<svg height="520" viewBox="0 0 550 520" width="550" xmlns="http://www.w3.org/2000/svg"><g fill="none" fill-rule="evenodd" transform=""><path d="m0 1h312v288h-312z" fill="#fff"/><g fill="#000"><path d="m83.8 79.792v-40.032h22.32v102.24h-22.32v-41.328h-33.84v41.328h-22.32v-102.24h22.32v40.032zm63.936-40.032h23.328l32.976 98.064-21.024 7.056-7.776-22.896h-32.4l-7.056 22.896-21.024-7.056zm21.888 62.784-8.064-23.904-1.872-10.656h-.576l-1.872 10.656-8.064 23.904zm93.024 18.576 13.824-13.824 15.264 15.264-19.44 19.44h-42.624l-18.432-18.432v-65.376l18.432-18.432h41.616l18.432 18.432v19.008h-22.32v-10.8l-5.76-5.76h-22.32l-5.76 5.76v48.96l5.76 5.76zm-189.216 89.864 30.96 46.8-18.144 12.096-28.368-42.768-7.92 8.784v31.104h-22.32v-102.24h22.32v39.312l38.016-42.192 16.416 14.688zm39.744 56.016v-102.24h70.992v20.88h-48.672v17.568h42.624v20.88h-42.624v22.032h48.672v20.88zm133.488-81.36h-28.656v22.464h28.656l5.184-5.328v-11.808zm6.048 44.928 23.76 24.336-15.984 15.696-40.608-41.616h-1.872v38.016h-22.32v-102.24h62.496l15.984 15.84v32.544l-15.984 15.84h-5.184l-5.04-2.448-.288.432zm-133.488 96.92v-19.44l18.288-18.288h37.872l20.736 7.056-6.768 20.016-18.144-6.192h-24.768l-4.896 4.896v3.6l1.872 3.888 45.936 19.872 6.048 11.376v19.44l-18.288 18.288h-38.016l-20.736-7.056 6.768-20.016 18.144 6.192h24.912l4.896-4.896v-3.6l-1.872-3.888-45.936-19.872zm112.176 31.824v32.688h-22.32v-102.24h60.048l18.432 18.288v32.976l-18.432 18.288zm28.08-48.672h-28.08v27.792h28.08l5.76-5.76v-16.272zm65.376-20.88h23.328l32.976 98.064-21.024 7.056-7.776-22.896h-32.4l-7.056 22.896-21.024-7.056zm21.888 62.784-8.064-23.904-1.872-10.656h-.576l-1.872 10.656-8.064 23.904zm93.024 18.576 13.824-13.824 15.264 15.264-19.44 19.44h-42.624l-18.432-18.432v-65.376l18.432-18.432h41.616l18.432 18.432v19.008h-22.32v-10.8l-5.76-5.76h-22.32l-5.76 5.76v48.96l5.76 5.76zm39.168 20.88v-102.24h70.992v20.88h-48.672v17.568h42.624v20.88h-42.624v22.032h48.672v20.88zm-265.536 121.112v-12.24l6.048-6.048h11.664l6.768 6.048v12.24l-6.048 6.048h-12.384zm83.088 3.888h-49.968v-19.44h13.824v-63.36h-13.824v-19.44h49.968v19.44h-13.824v63.36h13.824zm9.504-64.512v-19.44l18.288-18.288h37.872l20.736 7.056-6.768 20.016-18.144-6.192h-24.768l-4.896 4.896v3.6l1.872 3.888 45.936 19.872 6.048 11.376v19.44l-18.288 18.288h-38.016l-20.736-7.056 6.768-20.016 18.144 6.192h24.912l4.896-4.896v-3.6l-1.872-3.888-45.936-19.872zm133.056-16.848v81.36h-22.32v-81.36h-28.08v-20.88h78.48v20.88z"/><path d="m0 0h314v10h-314z"/></g></g></svg>

<?xml version="1.0" encoding="UTF-8"?>
<svg width="550px" height="520px" viewBox="0 0 550 520" version="1.1" xmlns="http://www.w3.org/2000/svg" xmlns:xlink="http://www.w3.org/1999/xlink">
    <!-- Generator: Sketch 50 (54983) - http://www.bohemiancoding.com/sketch -->
    <title>HACKERSPACE.IST</title>
    <desc>Created with Sketch.</desc>
    <defs></defs>
    <g id="HOME" stroke="none" stroke-width="1" fill="none" fill-rule="evenodd">
        <g id="SCROLLDOWN-PAGE" transform="translate(-264.000000, -487.000000)">
            <g id="HOME-PAGE" transform="translate(-2.000000, 2.000000)">
                <g id="HACKERSPACE.IST" transform="translate(266.000000, 485.000000)">
                    <rect id="Rectangle-7" fill="#FFFFFF" x="0" y="1" width="312" height="288"></rect>
                    <path d="M83.8,79.792 L83.8,39.76 L106.12,39.76 L106.12,142 L83.8,142 L83.8,100.672 L49.96,100.672 L49.96,142 L27.64,142 L27.64,39.76 L49.96,39.76 L49.96,79.792 L83.8,79.792 Z M147.736,39.76 L171.064,39.76 L204.04,137.824 L183.016,144.88 L175.24,121.984 L142.84,121.984 L135.784,144.88 L114.76,137.824 L147.736,39.76 Z M169.624,102.544 L161.56,78.64 L159.688,67.984 L159.112,67.984 L157.24,78.64 L149.176,102.544 L169.624,102.544 Z M262.648,121.12 L276.472,107.296 L291.736,122.56 L272.296,142 L229.672,142 L211.24,123.568 L211.24,58.192 L229.672,39.76 L271.288,39.76 L289.72,58.192 L289.72,77.2 L267.4,77.2 L267.4,66.4 L261.64,60.64 L239.32,60.64 L233.56,66.4 L233.56,115.36 L239.32,121.12 L262.648,121.12 Z M73.432,210.984 L104.392,257.784 L86.248,269.88 L57.88,227.112 L49.96,235.896 L49.96,267 L27.64,267 L27.64,164.76 L49.96,164.76 L49.96,204.072 L87.976,161.88 L104.392,176.568 L73.432,210.984 Z M113.176,267 L113.176,164.76 L184.168,164.76 L184.168,185.64 L135.496,185.64 L135.496,203.208 L178.12,203.208 L178.12,224.088 L135.496,224.088 L135.496,246.12 L184.168,246.12 L184.168,267 L113.176,267 Z M246.664,185.64 L218.008,185.64 L218.008,208.104 L246.664,208.104 L251.848,202.776 L251.848,190.968 L246.664,185.64 Z M252.712,230.568 L276.472,254.904 L260.488,270.6 L219.88,228.984 L218.008,228.984 L218.008,267 L195.688,267 L195.688,164.76 L258.184,164.76 L274.168,180.6 L274.168,213.144 L258.184,228.984 L253,228.984 L247.96,226.536 L247.672,226.968 L252.712,230.568 Z M119.224,327.488 L119.224,308.048 L137.512,289.76 L175.384,289.76 L196.12,296.816 L189.352,316.832 L171.208,310.64 L146.44,310.64 L141.544,315.536 L141.544,319.136 L143.416,323.024 L189.352,342.896 L195.4,354.272 L195.4,373.712 L177.112,392 L139.096,392 L118.36,384.944 L125.128,364.928 L143.272,371.12 L168.184,371.12 L173.08,366.224 L173.08,362.624 L171.208,358.736 L125.272,338.864 L119.224,327.488 Z M231.4,359.312 L231.4,392 L209.08,392 L209.08,289.76 L269.128,289.76 L287.56,308.048 L287.56,341.024 L269.128,359.312 L231.4,359.312 Z M259.48,310.64 L231.4,310.64 L231.4,338.432 L259.48,338.432 L265.24,332.672 L265.24,316.4 L259.48,310.64 Z M324.856,289.76 L348.184,289.76 L381.16,387.824 L360.136,394.88 L352.36,371.984 L319.96,371.984 L312.904,394.88 L291.88,387.824 L324.856,289.76 Z M346.744,352.544 L338.68,328.64 L336.808,317.984 L336.232,317.984 L334.36,328.64 L326.296,352.544 L346.744,352.544 Z M439.768,371.12 L453.592,357.296 L468.856,372.56 L449.416,392 L406.792,392 L388.36,373.568 L388.36,308.192 L406.792,289.76 L448.408,289.76 L466.84,308.192 L466.84,327.2 L444.52,327.2 L444.52,316.4 L438.76,310.64 L416.44,310.64 L410.68,316.4 L410.68,365.36 L416.44,371.12 L439.768,371.12 Z M478.936,392 L478.936,289.76 L549.928,289.76 L549.928,310.64 L501.256,310.64 L501.256,328.208 L543.88,328.208 L543.88,349.088 L501.256,349.088 L501.256,371.12 L549.928,371.12 L549.928,392 L478.936,392 Z M213.4,513.112 L213.4,500.872 L219.448,494.824 L231.112,494.824 L237.88,500.872 L237.88,513.112 L231.832,519.16 L219.448,519.16 L213.4,513.112 Z M296.488,517 L246.52,517 L246.52,497.56 L260.344,497.56 L260.344,434.2 L246.52,434.2 L246.52,414.76 L296.488,414.76 L296.488,434.2 L282.664,434.2 L282.664,497.56 L296.488,497.56 L296.488,517 Z M305.992,452.488 L305.992,433.048 L324.28,414.76 L362.152,414.76 L382.888,421.816 L376.12,441.832 L357.976,435.64 L333.208,435.64 L328.312,440.536 L328.312,444.136 L330.184,448.024 L376.12,467.896 L382.168,479.272 L382.168,498.712 L363.88,517 L325.864,517 L305.128,509.944 L311.896,489.928 L330.04,496.12 L354.952,496.12 L359.848,491.224 L359.848,487.624 L357.976,483.736 L312.04,463.864 L305.992,452.488 Z M439.048,435.64 L439.048,517 L416.728,517 L416.728,435.64 L388.648,435.64 L388.648,414.76 L467.128,414.76 L467.128,435.64 L439.048,435.64 Z" id="HAC-KER-SPACE-.IST" fill="#000000"></path>
                    <rect id="Rectangle-11" fill="#000000" x="0" y="0" width="314" height="10"></rect>
                </g>
            </g>
        </g>
    </g>
</svg>
